usr/share/icons/biglinux-icons-material-dark/symbolic/actions/draw-bezier-curves.svg

<svg xmlns="http://www.w3.org/2000/svg" viewBox="0 0 16 16">
  <defs id="defs3051">
    <style type="text/css" id="current-color-scheme">
      .ColorScheme-Text {
        color:#dedede;
      }
      </style>
  </defs>
 <path style="fill:currentColor;fill-opacity:1;stroke:none" 
     d="M 12.5 2 A 1.5 1.5 0 0 0 11.087891 3 L 2 3 L 2 4 C 3.85517 4.95878 5.1650519 6.4794944 5.3574219 7.3027344 C 5.618921 8.4218139 5.2155266 9.7338822 4.171875 11.160156 A 1.4999979 1.4999852 0 0 0 3.5 11 A 1.4999979 1.4999852 0 0 0 2 12.5 A 1.4999979 1.4999852 0 0 0 3.5 14 A 1.4999979 1.4999852 0 0 0 4.9121094 13 L 9 13 L 9 14 L 12 14 L 12 11 L 9 11 L 9 12 L 4.9121094 12 A 1.4999979 1.4999852 0 0 0 4.875 11.904297 C 6.1789475 10.224649 6.7735438 8.6542873 6.4257812 7.140625 C 6.1320226 5.8619857 5.2413533 4.8645012 3.96875 4 L 11.087891 4 A 1.5 1.5 0 0 0 12.5 5 A 1.5 1.5 0 0 0 14 3.5 A 1.5 1.5 0 0 0 12.5 2 z M 12.5 3 A 0.5 0.5 0 0 1 13 3.5 A 0.5 0.5 0 0 1 12.5 4 A 0.5 0.5 0 0 1 12 3.5 A 0.5 0.5 0 0 1 12.5 3 z M 3.5 12 A 0.5 0.5 0 0 1 3.9941406 12.435547 A 0.5 0.5 0 0 1 3.9980469 12.464844 A 0.5 0.5 0 0 1 4 12.484375 A 0.5 0.5 0 0 1 4 12.5 A 0.5 0.5 0 0 1 3.5 13 A 0.5 0.5 0 0 1 3.0078125 12.585938 A 0.5 0.5 0 0 1 3.0078125 12.583984 A 0.5 0.5 0 0 1 3 12.5 A 0.5 0.5 0 0 1 3.0019531 12.449219 A 0.5 0.5 0 0 1 3.5 12 z M 10 12 L 11 12 L 11 13 L 10 13 L 10 12 z "
     class="ColorScheme-Text"
     />
</svg>

<svg xmlns="http://www.w3.org/2000/svg" viewBox="0 0 16 16">
<defs id="defs3051">
<style id="current-color-scheme" type="text/css">
.ColorScheme-Contrast{color:#dedede}
</style>
</defs>
<path d="M12.5 2a1.5 1.5 0 0 0-1.412 1H2v1c1.855.959 3.165 2.48 3.357 3.303.262 1.119-.141 2.43-1.185 3.857A1.5 1.5 0 0 0 3.5 11 1.5 1.5 0 0 0 2 12.5 1.5 1.5 0 0 0 3.5 14a1.5 1.5 0 0 0 1.412-1H9v1h3v-3H9v1H4.912l-.037-.096c1.304-1.68 1.899-3.25 1.55-4.763C6.133 5.862 5.242 4.865 3.97 4h7.119A1.5 1.5 0 0 0 12.5 5 1.5 1.5 0 0 0 14 3.5 1.5 1.5 0 0 0 12.5 2m0 1a.5.5 0 0 1 .5.5.5.5 0 0 1-.5.5.5.5 0 0 1-.5-.5.5.5 0 0 1 .5-.5m-9 9a.5.5 0 0 1 .494.436l.004.029.002.02v.015a.5.5 0 0 1-.5.5.5.5 0 0 1-.492-.414v-.002L3 12.5l.002-.05A.5.5 0 0 1 3.5 12m6.5 0h1v1h-1z" class="ColorScheme-Contrast" style="fill:currentColor;fill-opacity:1;stroke:none"/>
</svg>
